X:610
T:Miss Caroline Campbell
R:Reel
C:William MacLeish
B:The Athole Collection
M:C|
L:1/8
K:B_
A|B2 d/c/B/A/ B2 FB|GBFD ECCA|GdcA B2 FB|GBFE DB,B,:|
g|fBdB FBDg|gBdB Accg|fBdB FBDF|EGFE DB,B,g|fBdB FBDg|
fBdB Ac~ce|dBAB GeFd|EGFE DB,~B,||

